brandFactory_export/1.Light/Data okey_Ok_1Light.svg

<?xml version="1.0" encoding="UTF-8"?>
<svg width="24px" height="24px" viewBox="0 0 24 24" version="1.1" xmlns="http://www.w3.org/2000/svg" xmlns:xlink="http://www.w3.org/1999/xlink">
    <title>1.Light/Data okey_Ok_1Light</title>
    <g id="Symbols" stroke="none" stroke-width="1" fill="none" fill-rule="evenodd">
        <g id="1.Light/Data-okey_Ok_1Light" fill="#5CB615" fill-rule="nonzero">
            <path d="M10.4436975,12.3865546 C10.6352941,12.194958 10.9478992,12.194958 11.1394958,12.3865546 C11.3310924,12.5781513 11.3310924,12.887395 11.1428571,13.0789916 L11.1394958,13.0823529 L6.67226891,17.5361345 C6.48067227,17.7277311 6.16806723,17.7277311 5.97647059,17.5361345 L3.96638655,15.5327731 C3.77478992,15.3411765 3.77142857,15.0319328 3.96302521,14.8403361 L3.96638655,14.8369748 C4.15798319,14.6453782 4.47058824,14.6453782 4.66554622,14.8369748 L6.32268908,16.4907563 L10.4436975,12.3865546 L10.4436975,12.3865546 Z M20.4907563,20.7764706 C21.9361345,20.3428571 22.6689076,19.7613445 22.6689076,19.0420168 L22.6689076,15.4084034 C22.1714286,15.7781513 21.5361345,16.0907563 20.7831933,16.3159664 C19.4184874,16.7260504 17.6302521,16.9512605 15.7445378,16.9512605 C15.4084034,16.9512605 15.0823529,16.9378151 14.7563025,16.9210084 C14.7327731,17.1058824 14.7058824,17.2840336 14.6789916,17.4420168 C14.4537815,18.7294118 13.2672269,19.9798319 11.9428571,21.0151261 C13.0588235,21.2436975 14.3663866,21.3681066 15.7344538,21.3681066 C17.5193277,21.3714286 19.2067227,21.1596639 20.4907563,20.7764706 L20.4907563,20.7764706 Z M7.55630252,22.5848739 C9.33109244,21.7142857 13.3478992,19.3478992 13.7109244,17.2739496 C14.0302521,15.4151261 14.0806723,11.3747899 14.087395,9.91260504 C12.5781513,10 11.6705882,9.39159664 10.7865546,8.81008403 C9.89915966,8.22184874 9.05882353,7.67058824 7.55630252,7.66722689 L7.54957983,7.66722689 C6.04369748,7.66722689 5.20672269,8.22184874 4.31596639,8.81008403 C3.42521008,9.39831933 2.49411765,9.99327731 1.01848739,9.91932773 C1.02521008,11.3882353 1.07563025,15.4184874 1.40168067,17.2739496 C1.76806723,19.3512605 5.78151261,21.7142857 7.55630252,22.5848739 L7.55630252,22.5848739 Z M8.8,4.44705882 L8.8,6.81008403 C9.88571429,7.03529412 10.6453782,7.53613445 11.3310924,7.98991597 C12.2823529,8.61848739 13.0285714,9.11260504 14.4773109,8.8907563 C14.6218487,8.86722689 14.7731092,8.90420168 14.887395,9.00168067 C14.9983193,9.09579832 15.0756303,9.22689076 15.0756303,9.37142857 C15.0756303,9.43193277 15.0789916,9.84201681 15.0722689,10.4571429 C15.2941176,10.4638655 15.5193277,10.4739496 15.7478992,10.4739496 C17.5394958,10.4739496 19.2268908,10.2621849 20.5008403,9.8789916 C21.7579832,9.50252101 22.4369748,8.92773109 22.6722689,8.49747899 L22.6722689,4.46722689 C22.2084034,4.81344538 21.5831933,5.10588235 20.7865546,5.34789916 C19.4218487,5.75798319 17.6369748,5.97983193 15.7478992,5.97983193 C13.8621849,5.97983193 12.0739496,5.75462185 10.712605,5.34789916 C9.90588235,5.1092437 9.27058824,4.80672269 8.8,4.44705882 L8.8,4.44705882 Z M10.9781513,1.57647059 C9.77478992,1.93613445 9.0487395,2.42352941 8.8605042,2.98823529 C8.8605042,2.99159664 8.86386555,2.99495798 8.86722689,2.99831933 C9.05546218,3.55966387 9.79159664,4.04705882 10.994958,4.41008403 C12.2689076,4.78991597 13.9563025,5.00168067 15.7478992,5.00168067 C17.5428571,5.00168067 19.2268908,4.78991597 20.5008403,4.41008403 C21.6773109,4.05714286 22.4067227,3.58655462 22.6117647,3.04201681 C22.6151261,3.03529412 22.6218487,3.02857143 22.6252101,3.02184874 C22.4504202,2.43697479 21.7378151,1.94957983 20.4907563,1.57647059 C19.2134454,1.19663866 17.5260504,0.98487395 15.7344538,0.98487395 C13.9428571,0.98487395 12.2554622,1.19327731 10.9781513,1.57647059 L10.9781513,1.57647059 Z M15.0588235,11.4352941 C15.0386555,12.7731092 14.9815126,14.5176471 14.8605042,15.9394958 C15.1563025,15.9529412 15.4487395,15.9663866 15.7478992,15.9663866 C17.5394958,15.9663866 19.2268908,15.7579832 20.5008403,15.3747899 C21.7546218,14.9983193 22.4369748,14.4235294 22.6722689,13.9932773 L22.6722689,9.91260504 C22.1747899,10.2823529 21.5394958,10.5915966 20.7865546,10.8168067 C19.4218487,11.2268908 17.6336134,11.4521008 15.7512605,11.4521008 C15.5159664,11.4521008 15.287395,11.4420168 15.0588235,11.4352941 L15.0588235,11.4352941 Z M20.7731092,0.635294118 C22.6890756,1.21008403 23.6571429,2.10756303 23.6571429,3.31092437 L23.6571429,19.0420168 C23.6571429,20.2453782 22.6890756,21.1462185 20.7764706,21.7210084 C19.4016807,22.1310924 17.6134454,22.3563025 15.7378151,22.3563025 C13.9495798,22.3563025 12.2487395,22.1478992 10.9042017,21.7714286 C9.90252101,22.4470588 8.85378151,23.0487395 7.76470588,23.5764706 C7.6302521,23.6403361 7.47563025,23.6403361 7.34453782,23.5764706 C7.08571429,23.4554622 0.978151261,20.5478992 0.43697479,17.4453782 C0.0168067227,15.0756303 0.0335212274,9.6 0.0335212274,9.36806723 C0.0335212274,9.21680672 0.104201681,9.07563025 0.221848739,8.98151261 C0.339495798,8.8907563 0.494117647,8.8605042 0.642016807,8.8907563 C2.07394958,9.11596639 2.82352941,8.61848739 3.77478992,7.98991597 C4.69915966,7.37815126 5.7512605,6.68571429 7.55294118,6.68571429 L7.55966387,6.68571429 C7.64705882,6.68571429 7.72773109,6.69579832 7.81512605,6.69915966 L7.81512605,3.31092437 C7.81512605,3.11932773 7.84201681,2.93445378 7.89243697,2.75630252 L7.89243697,2.75294118 C8.16470588,1.82521008 9.10588235,1.11260504 10.6957983,0.638655462 C12.0605042,0.225210084 13.8521008,0 15.7344538,0 C17.6168067,0 19.4084034,0.225210084 20.7731092,0.635294118 Z" id="Data-okey_Ok_1Light"></path>
        </g>
    </g>
</svg>

<svg width="24" height="24" viewBox="0 0 24 24" xmlns="http://www.w3.org/2000/svg"><path d="M10.444 12.387a.493.493 0 01.699.692l-.004.003-4.467 4.454a.493.493 0 01-.696 0l-2.01-2.003a.489.489 0 01-.003-.693l.003-.003a.497.497 0 01.7 0l1.657 1.654 4.12-4.104zm10.047 8.39c1.445-.434 2.178-1.016 2.178-1.735v-3.634c-.498.37-1.133.683-1.886.908-1.365.41-3.153.635-5.038.635-.337 0-.663-.013-.989-.03a12.7 12.7 0 01-.077.521c-.225 1.287-1.412 2.538-2.736 3.573 1.116.229 2.423.353 3.791.353 1.785.003 3.473-.208 4.757-.592zM7.556 22.584c1.775-.87 5.792-3.237 6.155-5.311.32-1.859.37-5.9.376-7.361-1.509.087-2.416-.521-3.3-1.103-.888-.588-1.728-1.14-3.23-1.143H7.55c-1.506 0-2.343.555-3.234 1.143-.89.588-1.822 1.183-3.298 1.11.007 1.468.058 5.498.384 7.354.366 2.077 4.38 4.44 6.154 5.31zM8.8 4.447V6.81c1.086.225 1.845.726 2.531 1.18.951.628 1.698 1.123 3.146.9a.506.506 0 01.41.112c.111.094.189.225.189.37 0 .06.003.47-.004 1.085.222.007.447.017.676.017 1.791 0 3.479-.212 4.753-.595 1.257-.376 1.936-.951 2.171-1.382v-4.03c-.464.346-1.089.639-1.885.88-1.365.411-3.15.633-5.04.633-1.885 0-3.673-.225-5.034-.632-.807-.239-1.442-.541-1.913-.9zm2.178-2.87c-1.203.36-1.93.847-2.117 1.411 0 .004.003.007.006.01.188.562.925 1.05 2.128 1.412 1.274.38 2.961.592 4.753.592 1.795 0 3.479-.212 4.753-.592 1.176-.353 1.906-.823 2.11-1.368l.014-.02c-.175-.585-.887-1.072-2.134-1.446-1.278-.38-2.965-.591-4.757-.591-1.791 0-3.479.208-4.756.591zm4.08 9.858c-.02 1.338-.076 3.083-.197 4.504.295.014.588.027.887.027 1.791 0 3.479-.208 4.753-.591 1.254-.377 1.936-.951 2.171-1.382v-4.08c-.497.37-1.133.679-1.885.904-1.365.41-3.153.635-5.036.635-.235 0-.464-.01-.692-.017zm5.715-10.8c1.916.575 2.884 1.473 2.884 2.676v15.731c0 1.203-.968 2.104-2.88 2.679-1.375.41-3.164.635-5.04.635-1.787 0-3.488-.208-4.833-.585a25.48 25.48 0 01-3.14 1.805.485.485 0 01-.42 0c-.258-.12-6.366-3.028-6.907-6.13C.017 15.075.034 9.6.034 9.367c0-.151.07-.292.188-.386.117-.091.272-.121.42-.091 1.432.225 2.182-.273 3.133-.901.924-.612 1.976-1.304 3.778-1.304h.007c.087 0 .168.01.255.013V3.311c0-.192.027-.377.077-.555v-.003c.273-.928 1.214-1.64 2.804-2.114C12.06.225 13.852 0 15.734 0c1.883 0 3.674.225 5.04.635z" fill="#5CB615" fill-rule="nonzero"/></svg>
